X: 148112
Q: "Slow."
M: 6/8
L: 1/8
K: Am
|:\
vABd ue2uA | v^f2vd ue2uA | ABd e2A | g2e dBG |\
|:\
gag g^fe | v^f2g ua2uf | gag g^fe | dBg dBG |\
gag g^fe | ^f2g a2b | bag g^fe | dBg dBG :|


